img/offer/icon6.svg

<svg width="50" height="46" viewBox="0 0 50 46" fill="none" xmlns="http://www.w3.org/2000/svg">
<path fill-rule="evenodd" clip-rule="evenodd" d="M3.06334 0.146668C1.54792 0.556601 0.375724 1.8076 0.0881588 3.32186C0.00836481 3.74182 -0.0133798 8.26168 0.0074069 20.086L0.0358569 36.2752L0.261637 36.8383C0.690877 37.9089 1.63394 38.8251 2.73726 39.2435C3.27149 39.4461 3.44899 39.4553 7.37719 39.4844L11.4616 39.5146L12.0871 40.2662C14.0951 42.6795 16.9975 44.5511 20.0867 45.4249C21.6761 45.8744 22.6176 45.9981 24.4626 46C26.2619 46.0018 26.9359 45.9216 28.5816 45.5102C31.6961 44.7317 34.7235 42.8425 36.8335 40.3605L37.5526 39.5147L41.6404 39.4844C45.5721 39.4553 45.7495 39.4461 46.2837 39.2435C47.387 38.8251 48.3301 37.9089 48.7593 36.8383L48.9851 36.2752L49.0107 20.0379C49.0285 8.68029 49.005 3.64931 48.9326 3.29758C48.6123 1.74169 47.3229 0.428533 45.7954 0.102437C45.4278 0.0239966 39.5314 -0.00414172 24.434 0.000483755C6.52628 0.00588014 3.50714 0.0265984 3.06334 0.146668ZM46.0156 1.88883C46.4678 2.13485 46.93 2.60771 47.1775 3.07777C47.3245 3.35684 47.3608 3.68535 47.3881 4.98096L47.421 6.54688H24.5105H1.59993L1.63289 4.98096C1.66019 3.68535 1.69649 3.35684 1.84344 3.07777C2.18589 2.42741 2.77577 1.92507 3.43587 1.72193C3.56787 1.68127 13.1161 1.65534 24.6542 1.66421L45.6324 1.6805L46.0156 1.88883ZM3.72669 3.39375C2.96582 3.78114 3.22982 4.90869 4.0815 4.90869C4.82867 4.90869 5.15206 4.00537 4.57856 3.51999C4.25057 3.24227 4.07527 3.21635 3.72669 3.39375ZM7.02526 3.36224C6.75781 3.47123 6.60914 3.67012 6.5417 4.00894C6.45798 4.43024 6.87649 4.90869 7.32882 4.90869C8.17964 4.90869 8.43856 3.78827 7.68152 3.38257C7.44204 3.25431 7.30066 3.24988 7.02526 3.36224ZM10.2573 3.37149C10.0015 3.4747 9.73279 4.04816 9.82178 4.30102C9.8554 4.39671 9.97026 4.57267 10.077 4.69187C10.4969 5.16117 11.3871 4.81801 11.3871 4.18683C11.3871 3.7318 11.3071 3.5728 10.997 3.41148C10.6902 3.25181 10.5697 3.24535 10.2573 3.37149ZM21.5336 3.55217C21.1763 3.91161 21.1591 4.34062 21.4888 4.67212L21.7238 4.90869H24.5105H27.2971L27.5322 4.67212C27.8618 4.34062 27.8447 3.91161 27.4874 3.55217L27.2074 3.2705H24.5105H21.8136L21.5336 3.55217ZM35.4233 3.55217C35.066 3.91161 35.0489 4.34062 35.3785 4.67212L35.6135 4.90869H40.4373C45.1506 4.90869 45.2658 4.90426 45.4695 4.71326C45.906 4.3042 45.8207 3.66174 45.2943 3.39375C45.1148 3.3024 43.9293 3.27301 40.3805 3.27195L35.7033 3.2705L35.4233 3.55217ZM47.4046 21.948C47.4046 37.1934 47.4462 36.1911 46.7793 36.9748C46.5993 37.1865 46.246 37.4626 45.9942 37.5884C45.5424 37.8141 45.4939 37.8174 42.1121 37.8477C40.2286 37.8645 38.6876 37.8616 38.6876 37.8414C38.6876 37.8211 38.8976 37.3831 39.1544 36.8681C39.4112 36.3532 39.7881 35.4344 39.9922 34.8267L40.3631 33.7215H41.1475C42.0339 33.7215 42.3513 33.6295 42.7465 33.2577C43.2182 32.814 43.4028 32.1002 43.2218 31.4197C43.1421 31.1201 39.6119 26.7865 39.2685 26.5668C39.1239 26.4742 38.8155 26.3738 38.5831 26.3437C37.8014 26.2426 37.4999 26.4909 35.5915 28.807C34.6526 29.9465 33.8022 31.0523 33.7017 31.2643C33.2438 32.2307 33.7388 33.3288 34.7731 33.6405C34.9767 33.7019 35.1433 33.7923 35.1433 33.8414C35.1433 33.8906 34.9281 34.3498 34.6651 34.862C34.1501 35.8648 33.6285 36.611 32.9046 37.3802L32.448 37.8652H24.5108H16.5735L15.92 37.1249C14.9018 35.9713 14.5625 35.6719 14.0903 35.51C13.2108 35.2085 12.3911 35.3659 11.7127 35.9666C11.2253 36.3982 10.9423 36.8934 10.8496 37.477L10.7859 37.8774L7.13513 37.8473C3.51461 37.8173 3.48051 37.8151 3.02674 37.5884C2.775 37.4626 2.42173 37.1865 2.24164 36.9748C1.57474 36.1911 1.61641 37.1934 1.61641 21.948V8.18507H24.5105H47.4046V21.948ZM3.52486 10.9722C3.16152 11.3377 3.16152 11.6815 3.52486 12.0471C3.80227 12.326 3.81539 12.3287 4.91823 12.3287C5.97251 12.3287 6.04397 12.3162 6.26659 12.0922C6.58653 11.7704 6.58653 11.2489 6.26659 10.9271C6.04397 10.7031 5.97251 10.6905 4.91823 10.6905C3.81539 10.6905 3.80227 10.6932 3.52486 10.9722ZM8.45168 10.9189C8.25062 11.093 8.18768 11.2337 8.18768 11.5096C8.18768 11.7855 8.25062 11.9263 8.45168 12.1003L8.71568 12.3287H12.69H16.6643L16.8994 12.0922C17.1308 11.8594 17.203 11.4638 17.0751 11.1285C16.9171 10.7144 16.6723 10.6905 12.5946 10.6905H8.71568L8.45168 10.9189ZM32.3175 10.8018C31.8221 11.0744 31.7278 11.6961 32.1216 12.0922L32.3566 12.3287H36.331H40.3053L40.5693 12.1003C40.9392 11.7802 40.9392 11.239 40.5693 10.9189L40.3053 10.6905L36.4072 10.6934C33.7712 10.6955 32.447 10.7305 32.3175 10.8018ZM42.7544 10.9271C42.592 11.0904 42.5192 11.2707 42.5192 11.5096C42.5192 11.7485 42.592 11.9289 42.7544 12.0922C42.977 12.3162 43.0485 12.3287 44.1027 12.3287C45.2056 12.3287 45.2187 12.326 45.4961 12.0471C45.6649 11.8773 45.7761 11.6638 45.7761 11.5096C45.7761 11.3554 45.6649 11.142 45.4961 10.9722C45.2187 10.6932 45.2056 10.6905 44.1027 10.6905C43.0485 10.6905 42.977 10.7031 42.7544 10.9271ZM21.9872 13.3419C15.4756 14.4015 10.2855 19.1379 8.69001 25.4768L8.48243 26.3015L7.85126 26.3021C7.50421 26.3024 7.0674 26.3453 6.88071 26.3975C6.49553 26.5051 5.98832 26.9884 5.83706 27.3919C5.69175 27.7796 5.71158 28.3909 5.88094 28.7442C5.96092 28.9112 6.80379 30.0019 7.75394 31.1679C9.82533 33.71 10.1012 33.9133 11.0918 33.6275C11.2711 33.5757 11.5242 33.4349 11.6542 33.3143C12.0457 32.9515 15.179 29.0714 15.3485 28.7395C15.6498 28.1499 15.4687 27.2239 14.962 26.7629C14.7152 26.5384 14.1302 26.3015 13.8225 26.3015C13.5948 26.3015 13.5759 26.275 13.6337 26.0365C13.7613 25.5098 14.3497 24.2522 14.8507 23.4356C15.4696 22.4268 17.0696 20.7649 18.0446 20.1182C21.6499 17.7267 25.8965 17.4515 29.6832 19.3642C31.295 20.1784 32.5431 21.2414 33.735 22.8156C34.5839 23.9366 34.9813 24.1952 35.9437 24.2524C36.5516 24.2887 36.6869 24.2627 37.1542 24.0205C38.3195 23.4168 38.825 21.9661 38.2737 20.8088C37.9952 20.2243 37.0006 18.9634 36.0794 18.027C33.7858 15.6957 31.0091 14.1831 27.7195 13.473C26.4702 13.2033 23.2862 13.1305 21.9872 13.3419ZM3.52821 14.2452C3.22618 14.5491 3.17618 14.8135 3.35626 15.1537C3.59239 15.5996 3.58511 15.5988 7.327 15.602C10.7811 15.605 10.8895 15.5994 11.1347 15.4053C11.4487 15.1569 11.4826 14.5888 11.204 14.2426L11.021 14.0151L7.41628 13.9876L3.81156 13.9602L3.52821 14.2452ZM38.0472 14.064C37.5698 14.2575 37.4714 15.0771 37.8863 15.4053C38.1315 15.5994 38.2398 15.605 41.694 15.602C45.4359 15.5988 45.4286 15.5996 45.6647 15.1537C45.8443 14.8143 45.795 14.5492 45.4961 14.2486L45.2161 13.9669L41.7363 13.973C39.8224 13.9764 38.1624 14.0173 38.0472 14.064ZM27.5279 15.1167C30.645 15.8417 33.0302 17.1984 35.1969 19.4788C36.2275 20.5635 36.8675 21.485 36.8675 21.8841C36.8675 22.2764 36.4873 22.6405 36.0816 22.6366C35.6795 22.6327 35.5876 22.5554 34.9231 21.662C33.8011 20.1536 31.7341 18.4587 30.1085 17.7143C28.1392 16.8124 26.8016 16.5251 24.5584 16.5226C22.6464 16.5204 22.0465 16.6065 20.4873 17.1076C18.5802 17.7205 16.998 18.6687 15.527 20.0805C14.4324 21.131 13.5773 22.2586 12.9391 23.4928C12.1827 24.9557 11.5745 26.8926 11.7232 27.3641C11.8677 27.822 12.1356 27.9397 13.0337 27.9397C13.4979 27.9397 13.877 27.9722 13.8762 28.012C13.8744 28.1033 10.7281 31.9287 10.6227 31.9676C10.5632 31.9896 8.12446 29.0826 7.49396 28.238C7.39827 28.1098 7.36235 28.1089 7.20659 28.2308C7.0402 28.3609 7.04049 28.356 7.21109 28.1549C7.37901 27.9569 7.47605 27.9397 8.42706 27.9397C9.79429 27.9397 9.8555 27.8881 10.1423 26.4942C10.7169 23.7008 12.0288 21.3068 14.1587 19.1642C16.3141 16.9959 18.6095 15.7366 21.508 15.1321C22.8759 14.8469 22.8596 14.8482 24.8458 14.8836C26.2613 14.909 26.8575 14.9607 27.5279 15.1167ZM40.0288 29.9393C40.8856 30.9861 41.647 31.8362 41.721 31.8285C41.8253 31.8177 41.8306 31.8447 41.7446 31.9489C41.6612 32.05 41.3537 32.0834 40.5065 32.0834C39.0899 32.0834 39.0542 32.1077 38.7419 33.2879C37.2568 38.9008 32.886 43.0035 27.1762 44.1442C25.6496 44.4492 23.378 44.4505 21.8616 44.1475C18.4379 43.4631 15.3712 41.6775 13.289 39.1558C12.3217 37.9845 12.2513 37.752 12.7208 37.2796C13.2016 36.7959 13.6111 36.9252 14.2712 37.7688C15.2952 39.0776 16.8081 40.3537 18.2999 41.1667C24.7139 44.6627 32.7754 42.153 36.1103 35.6218C36.5966 34.6694 37.1549 33.1767 37.1549 32.8287C37.1549 32.7286 37.029 32.52 36.8749 32.365C36.6148 32.1033 36.5436 32.0834 35.8691 32.0834C35.47 32.0834 35.1433 32.0559 35.1433 32.0224C35.1433 31.9137 38.3221 28.0368 38.4117 28.0364C38.4444 28.0363 39.1721 28.8925 40.0288 29.9393ZM29.3479 39.9889C26.7221 41.2749 23.7371 41.4549 20.8927 40.4986C20.1706 40.2559 18.8588 39.6443 18.8588 39.5503C18.8588 39.5245 21.4343 39.5071 24.5823 39.5116L30.3059 39.5198L29.3479 39.9889Z" fill="url(#paint0_linear_1924_5741)"/>
<defs>
<linearGradient id="paint0_linear_1924_5741" x1="0" y1="0" x2="46.811" y2="50.1251" gradientUnits="userSpaceOnUse">
<stop stop-color="#0ABD92"/>
<stop offset="1" stop-color="#009DB8"/>
</linearGradient>
</defs>
</svg>

<svg width="50" height="46" fill="none" xmlns="http://www.w3.org/2000/svg"><path fill-rule="evenodd" clip-rule="evenodd" d="M3.063.147C1.548.557.376 1.807.088 3.322c-.08.42-.101 4.94-.08 16.764l.028 16.19.226.562c.429 1.07 1.372 1.987 2.475 2.405.534.203.712.212 4.64.241l4.085.03.625.752c2.008 2.413 4.91 4.285 8 5.159 1.59.45 2.53.573 4.376.575 1.799.002 2.473-.078 4.119-.49 3.114-.778 6.142-2.667 8.252-5.15l.719-.845 4.087-.03c3.932-.03 4.11-.039 4.644-.242 1.103-.418 2.046-1.334 2.475-2.405l.226-.563.026-16.237c.017-11.358-.006-16.389-.078-16.74-.32-1.556-1.61-2.87-3.138-3.196C45.428.024 39.531-.004 24.434 0 6.526.006 3.507.027 3.064.147zm42.953 1.742c.452.246.914.719 1.162 1.189.147.279.183.607.21 1.903l.033 1.566H1.6l.033-1.566c.027-1.296.063-1.624.21-1.903.343-.65.933-1.153 1.593-1.356.132-.04 9.68-.067 21.218-.058l20.978.017.384.208zM3.726 3.394c-.76.387-.496 1.515.356 1.515a.78.78 0 00.497-1.389c-.328-.278-.504-.304-.852-.126zm3.3-.032c-.268.11-.417.308-.484.647-.084.421.334.9.787.9.85 0 1.11-1.12.353-1.526-.24-.129-.381-.133-.657-.02zm3.231.01c-.255.103-.524.676-.435.929.033.096.148.272.255.39.42.47 1.31.127 1.31-.504 0-.455-.08-.614-.39-.776-.307-.16-.427-.166-.74-.04zm11.277.18c-.358.36-.375.789-.045 1.12l.235.237h5.573l.235-.237c.33-.331.313-.76-.045-1.12l-.28-.281h-5.393l-.28.281zm13.89 0c-.358.36-.375.789-.045 1.12l.235.237h4.823c4.714 0 4.829-.005 5.032-.196.437-.409.352-1.051-.175-1.32-.18-.09-1.365-.12-4.913-.121l-4.678-.001-.28.281zm11.98 18.396c0 15.245.042 14.243-.625 15.027a2.95 2.95 0 01-.785.613c-.452.226-.5.23-3.882.26-1.883.017-3.424.014-3.424-.007 0-.02.21-.458.466-.973a19.33 19.33 0 00.838-2.041l.371-1.105h.785c.886 0 1.203-.093 1.598-.464.472-.444.657-1.158.476-1.838-.08-.3-3.61-4.634-3.953-4.853-.145-.093-.453-.193-.686-.223-.782-.101-1.083.147-2.991 2.463-.94 1.14-1.79 2.245-1.89 2.457-.458.967.037 2.065 1.071 2.377.204.06.37.151.37.2 0 .05-.215.509-.478 1.021-.515 1.003-1.036 1.749-1.76 2.518l-.457.485H16.573l-.653-.74c-1.018-1.154-1.357-1.453-1.83-1.615-.88-.301-1.699-.144-2.377.457-.488.431-.77.926-.863 1.51l-.064.4-3.65-.03c-3.621-.03-3.655-.032-4.11-.259a2.981 2.981 0 01-.784-.613c-.667-.784-.626.218-.626-15.027V8.185h45.789v13.763zM3.525 10.972c-.362.366-.362.71 0 1.075.278.279.291.282 1.394.282 1.055 0 1.126-.013 1.349-.237a.827.827 0 000-1.165c-.223-.224-.294-.236-1.349-.236-1.103 0-1.116.002-1.393.281zm4.928-.053c-.201.174-.264.315-.264.59 0 .277.063.417.264.591l.264.229h7.948l.235-.237c.232-.233.304-.628.176-.963-.158-.415-.403-.438-4.48-.438h-3.88l-.263.228zm23.866-.117c-.496.272-.59.894-.196 1.29l.235.237h7.948l.264-.229a.768.768 0 000-1.181l-.264-.229-3.898.003c-2.636.002-3.96.037-4.09.109zm10.436.125a.769.769 0 00-.235.583c0 .239.073.419.235.582.223.224.294.237 1.349.237 1.103 0 1.116-.003 1.393-.282.169-.17.28-.383.28-.537 0-.155-.111-.368-.28-.538-.277-.279-.29-.281-1.393-.281-1.055 0-1.126.012-1.349.236zm-20.767 2.415c-6.511 1.06-11.701 5.796-13.297 12.135l-.208.825h-.63c-.348 0-.785.043-.971.096-.385.107-.893.59-1.044.994-.145.388-.125.999.044 1.352.08.167.923 1.258 1.873 2.424 2.071 2.542 2.347 2.745 3.338 2.46.18-.052.432-.193.562-.314.392-.362 3.525-4.243 3.694-4.575.302-.59.12-1.515-.386-1.976-.247-.225-.832-.462-1.14-.462-.227 0-.246-.026-.188-.264.127-.527.716-1.785 1.217-2.601.619-1.01 2.219-2.671 3.194-3.318 3.605-2.391 7.851-2.666 11.638-.754 1.612.814 2.86 1.877 4.052 3.452.849 1.12 1.246 1.38 2.209 1.436.608.037.743.01 1.21-.232 1.165-.603 1.671-2.054 1.12-3.211-.279-.585-1.273-1.846-2.195-2.782-2.293-2.331-5.07-3.844-8.36-4.554-1.249-.27-4.433-.343-5.732-.131zm-18.459.903c-.302.304-.352.569-.172.909.236.446.23.445 3.971.448 3.454.003 3.563-.003 3.808-.197.314-.248.348-.816.069-1.162l-.183-.228-3.605-.027-3.604-.028-.284.285zm34.52-.181c-.478.194-.577 1.013-.162 1.341.245.194.354.2 3.808.197 3.742-.003 3.735-.002 3.97-.448.18-.34.131-.605-.168-.905l-.28-.282-3.48.006c-1.914.003-3.574.044-3.689.091zm-10.52 1.053c3.117.725 5.502 2.081 7.669 4.362 1.03 1.085 1.67 2.006 1.67 2.405 0 .392-.38.756-.785.753-.403-.004-.494-.082-1.159-.975-1.122-1.508-3.189-3.203-4.815-3.948-1.969-.902-3.306-1.189-5.55-1.191-1.912-.003-2.511.084-4.07.585-1.908.613-3.49 1.56-4.961 2.973-1.095 1.05-1.95 2.178-2.588 3.412-.756 1.463-1.364 3.4-1.216 3.871.145.458.413.576 1.31.576.465 0 .844.032.843.072-.002.091-3.148 3.917-3.253 3.956-.06.022-2.499-2.885-3.129-3.73-.096-.128-.132-.13-.287-.007-.167.13-.167.125.004-.076.168-.198.265-.215 1.216-.215 1.367 0 1.428-.052 1.715-1.446.575-2.793 1.887-5.187 4.017-7.33 2.155-2.168 4.45-3.427 7.349-4.032 1.368-.285 1.352-.284 3.338-.248 1.415.025 2.012.077 2.682.233zm12.5 14.822c.858 1.047 1.619 1.897 1.693 1.89.104-.011.11.016.024.12-.084.101-.391.134-1.238.134-1.417 0-1.453.025-1.765 1.205-1.485 5.613-5.856 9.716-11.566 10.856-1.526.305-3.798.306-5.314.004-3.424-.685-6.49-2.47-8.573-4.992-.967-1.172-1.038-1.404-.568-1.876.48-.484.89-.355 1.55.489 1.024 1.309 2.537 2.585 4.029 3.398 6.414 3.496 14.475.986 17.81-5.545.487-.953 1.045-2.445 1.045-2.793 0-.1-.126-.309-.28-.464-.26-.262-.331-.282-1.006-.282-.399 0-.726-.027-.726-.06 0-.11 3.18-3.986 3.269-3.987.032 0 .76.856 1.617 1.903zm-10.68 10.05c-2.626 1.286-5.61 1.466-8.455.51-.722-.243-2.034-.855-2.034-.949 0-.025 2.575-.043 5.723-.038l5.724.008-.958.469z" fill="url(#paint0_linear_1924_5741)"/><defs><linearGradient id="paint0_linear_1924_5741" x1="0" y1="0" x2="46.811" y2="50.125" gradientUnits="userSpaceOnUse"><stop stop-color="#0ABD92"/><stop offset="1" stop-color="#009DB8"/></linearGradient></defs></svg>
